X: 34705
T: Road To Garrison, The
R: reel
M: 4/4
K: Dmajor
|:A3B A2FA|BFAF egfe|dA A2 FAAF|GEAG FADF|
A3B A2FA|BFAF egfe|dB B2 A2dB|1 AFEG FDE/F/G:|2 AFEG FDDA||
|:d3f af f2|fabf afef|df f2 Adfa|bfaf egfe|
defg af f2|fgeg fedB|A3B A2dB|1 AFEG FDDA:|2 AFEG FDE/F/G||

